polaris-icons/icons/newicons/ExtendMajor.svg

<svg width="20" height="20" viewBox="0 0 20 20" fill="none" xmlns="http://www.w3.org/2000/svg">
<path d="M10.25 8.25C10.6642 8.25 11 7.91422 11 7.5C11 7.08579 10.6642 6.75 10.25 6.75L3.96299 6.75L5.8011 4.75871C6.08206 4.45435 6.06308 3.97985 5.75871 3.6989C5.45434 3.41795 4.97985 3.43693 4.6989 3.74129L1.6989 6.99129C1.4337 7.27859 1.4337 7.72142 1.6989 8.00871L4.6989 11.2587C4.97985 11.5631 5.45434 11.5821 5.75871 11.3011C6.06308 11.0202 6.08206 10.5457 5.8011 10.2413L3.96299 8.25L10.25 8.25Z" fill="black"/>
<path d="M9.75 11.75C9.33579 11.75 9 12.0858 9 12.5C9 12.9142 9.33579 13.25 9.75 13.25H16.037L14.1989 15.2413C13.9179 15.5457 13.9369 16.0201 14.2413 16.3011C14.5457 16.5821 15.0202 16.5631 15.3011 16.2587L18.3011 13.0087C18.5663 12.7214 18.5663 12.2786 18.3011 11.9913L15.3011 8.74129C15.0202 8.43692 14.5457 8.41794 14.2413 8.69889C13.9369 8.97985 13.9179 9.45434 14.1989 9.75871L16.037 11.75H9.75Z" fill="black"/>
</svg>

<svg viewBox="0 0 20 20" fill="none" xmlns="http://www.w3.org/2000/svg"><path d="M10.25 8.25a.75.75 0 0 0 0-1.5h-6.287l1.838-1.991a.75.75 0 1 0-1.102-1.018l-3 3.25a.75.75 0 0 0 0 1.018l3 3.25a.75.75 0 1 0 1.102-1.018l-1.838-1.991h6.287Z" fill="#000"/><path d="M9.75 11.75a.75.75 0 0 0 0 1.5h6.287l-1.838 1.991a.75.75 0 1 0 1.102 1.018l3-3.25a.75.75 0 0 0 0-1.018l-3-3.25a.75.75 0 1 0-1.102 1.018l1.838 1.991h-6.287Z" fill="#000"/></svg>
